X:1
T:Mrs. Anderson's Reel
C:Robert Mackintosh
L:1/8
M:2/2
I:linebreak $
K:G
V:1 treble 
V:1
 d |"G" g2 dc BGdB |"Am" cBAG"D7" FDDf |"G" g2 dc BGdB |"Am" ce"D7"dc"G" BGG :| c | %6
"G" BGdB"Am" cAec |$"G" BgdB"D7" cAAc |"G" BGdB"Am" cAec |"D7" BdAc"G" BGG || c | %11
"G" BGdB"Am" cAec |"G" BgdB"D7" cAAc |$"G" Bdgb"Am" ceag |"D7" fdef"G" gGG |] %15
